X:1
T:Peralta, 87.87 D
T:Peralta, 87.87 D
T:Victor H. Benke, 1900
T:Public Domain Courtesy of the Cyber Hymnal™
C:Victor H. Benke, 1900
Z:Public Domain
Z:Courtesy of the Cyber Hymnal™
%%score 1 ( 2 3 )
L:1/8
Q:1/4=102
M:4/4
K:G
V:1 treble 
V:2 bass 
V:3 bass 
V:1
 [GB]2 [G^A]>[GB] [Gc]2 [GB]2 | [Fd]3 [^E^G] [FA]4 | [Fc]2 [FB][FA] [CE]2 [CF]2 | [CE]4 [B,D]4 | %4
 [GB]2 [G^A]>[GB] [Gc]2 [GB]2 | [EB]3 [EA] [^CE]4 | [DF]2 [DF][DF] [DG]2 [D^G]2 | [FB]4 [FA]4 | %8
 [GB]2 [Gc]>[GB] [Gd]4 | [DG]2 [DA]>[DG] [DB]4 | [^CE]2 [C^D]>[CE] [CF]2 [CG]2 | [DB]4 [FA]4 | %12
 [GB]2 [^Gc]>[GB] [=Ge]4 | [FA]2 [FB]>[FA] [=Fd]4 | [EG]2 [EF][EG] [Gd]2 [GB]2 | %15
 [FA]4 !fermata![DG]4 |] %16
V:2
 [G,D]2 [G,^C]>[G,D] [G,E]2 [G,D]2 | [D,C]3 [D,B,] [D,C]4 | [D,E]2 [D,D][D,C] [D,G,]2 [D,A,]2 | %3
 [G,,G,]4 [G,,G,]4 | [G,,G,D]2 [G,,G,^C]>[G,,G,D] [G,,G,E]2 [G,,G,D]2 | %5
 [A,,G,^C]3 [A,,G,C] [A,,G,]4 | [D,A,]2 [D,A,][D,A,] [D,B,]2 [D,B,]2 | [D,D]4 [D,D]4 | %8
 [G,D]2 [G,E]>[G,D] [G,B,]4 | [G,,G,B,]2 [G,,G,C]>[G,,G,B,] [G,,G,]4 | %10
 [A,,G,]2 [A,,F,]>[A,,G,] [A,,^D,]2 [A,,E,]2 | G,2 B,2 [D,D]4 | [G,D]2 [E,E]>[E,F] [A,,A,^C]4 | %13
 [D,C]2 [D,D]>[D,C] [G,,G,B,]4 | [C,C]2 [^C,A,][C,^A,] [D,B,]2 [D,D]2 | [D,C]4 !fermata![G,,B,]4 |] %16
V:3
 x8 | x8 | x8 | x8 | x8 | x8 | x8 | x8 | x8 | x8 | x8 | D,4 x4 | x8 | x8 | x8 | x8 |] %16

